X:726
T:Ko Stjerna
R:Polska
Z:C-G Magnusson, 2008-11-01
O:Skillingmark, Värmland
S:Efter Nils "Buern" Bryntesson
N:Upptecknad av Nils Andersson, Skönnerud
B:Sumlen 1981, sid 89
M:3/4
L:1/8
Q:120
K:G
(G>B) d2 d2 | (G>B) d2 d2 | e>d ((3cBc) A2 | ((3fef) g2 g2 :|
|: ba ((3gfg) e2 | ag ((3fef) d2 | ed (^cd) eg | ((3fef) g2 g2 :|
|: (B6 | c>)c (c4 | B>)A (A4 | B>)G G4 | (B6 | c>)c c4 |
B>A (A4 | B)A G4 :|
(:musicend:)

(:music:)
